src/common/icons/beauty.svg

<svg width="63" height="63" viewBox="0 0 63 63" fill="none" xmlns="http://www.w3.org/2000/svg">
<circle cx="31.5" cy="31.5" r="31.5" fill="#FFCCE8"/>
<path fill-rule="evenodd" clip-rule="evenodd" d="M31.3827 29.3663C31.3827 29.3663 32.0451 28.2608 33.1454 25.6559C34.1666 23.2383 37.5084 14.9295 38.5502 12.3361C38.7567 11.822 38.8045 11.2262 38.3276 10.9227C38.2218 10.8555 38.0953 10.7879 37.9439 10.7228C37.7289 10.6305 37.5418 10.5812 37.382 10.5593C36.8909 10.4922 36.5438 10.9029 36.321 11.3306L26.9826 29.2551C25.4135 32.0809 22.8548 35.5333 21.7805 36.9828C21.6803 37.1179 21.5931 37.2356 21.5208 37.3338C20.4603 38.7731 19.8684 39.1901 19.3297 39.3993C18.9513 39.5463 18.71 39.5178 18.4436 39.4556C15.858 38.7395 13.1652 39.8853 12.2833 42.1508C11.351 44.5456 12.7951 47.2847 15.5087 48.2687C18.2223 49.2528 19.288 47.4239 20.2203 45.0291C20.8013 43.5366 21.1933 42.1766 20.7494 41.1254C20.7457 41.1116 20.7418 41.0976 20.7377 41.0834C20.4822 40.1828 21.0632 39.5442 21.6466 38.9032C21.7572 38.7816 21.8678 38.66 21.9729 38.5365C22.2606 38.1983 22.7137 37.656 23.2138 37.0575C23.901 36.235 24.6769 35.3064 25.2339 34.6557C26.1961 33.5314 27.8478 32.8658 28.6257 32.7769C29.2254 32.7084 29.4814 32.3515 29.7277 32.0079L29.7298 32.005C29.9768 31.6605 31.3827 29.3663 31.3827 29.3663ZM19.172 44.6489C18.4883 46.4051 17.706 47.746 15.7092 47.0219C13.7124 46.2978 12.6479 44.2871 13.3316 42.531C14.0152 40.7748 16.1882 39.9381 18.185 40.6622C20.1817 41.3863 19.8557 42.8927 19.172 44.6489Z" fill="white"/>
<path fill-rule="evenodd" clip-rule="evenodd" d="M23.6799 43.703C21.9354 43.6977 21.0902 45.2694 20.3331 47.2143C19.4008 49.6091 18.9551 51.6629 21.6687 52.647C24.3823 53.631 27.3378 52.4874 28.2701 50.0926C29.0888 47.9895 28.0748 45.6209 25.9778 44.4086C25.8838 44.2188 25.8239 44.0199 25.8186 43.8215C25.8175 43.7805 25.8161 43.7388 25.8146 43.6961C25.796 43.1545 25.7716 42.4457 26.3682 40.9134C26.8831 39.5907 28.56 35.8612 29.9164 32.8757L27.6441 28.8353L26.2458 31.5868C26.0204 32.1657 26.1736 33.0941 26.3653 33.67C26.6386 34.4912 26.5633 36.633 26.1354 38.0315C25.9384 38.6752 25.7552 39.1891 25.5892 39.6546C25.3945 40.2006 25.2236 40.68 25.0822 41.2239C24.8478 42.1253 24.439 43.382 23.6799 43.703ZM24.8442 45.2215C22.8474 44.4974 22.065 45.8383 21.3814 47.5945C20.6977 49.3506 20.3716 50.857 22.3684 51.5811C24.3652 52.3053 26.5381 51.4686 27.2218 49.7124C27.9055 47.9562 26.8409 45.9456 24.8442 45.2215ZM37.1145 11.5694C36.949 11.5094 36.8653 11.3313 36.9275 11.1717C36.9896 11.012 37.1741 10.9312 37.3395 10.9912L38.3101 11.3432C38.3698 10.9401 38.2919 10.5471 37.9244 10.3355C37.8094 10.2694 37.6706 10.204 37.503 10.1432C37.2731 10.0599 37.0765 10.0216 36.9112 10.0107C36.4298 9.97901 36.1168 10.3957 35.9212 10.8215L27.6441 28.8353L29.9164 32.8757C29.9164 32.8757 31.5864 29.4268 32.8608 26.5211L31.4877 26.0232C31.3223 25.9632 31.2386 25.7852 31.3008 25.6255C31.3629 25.4658 31.5474 25.3851 31.7128 25.445L33.1085 25.9512C33.1711 25.806 33.2322 25.663 33.2916 25.5226C33.3512 25.3818 33.4112 25.2386 33.4714 25.0931L32.0504 24.5778C31.885 24.5178 31.8013 24.3398 31.8634 24.1801C31.9256 24.0205 32.1101 23.9397 32.2755 23.9997L33.7066 24.5186C33.8206 24.2366 33.9354 23.9478 34.0507 23.6538L32.6131 23.1324C32.4477 23.0724 32.364 22.8944 32.4261 22.7347C32.4883 22.5751 32.6727 22.4943 32.8382 22.5543L34.2754 23.0755C34.3856 22.7891 34.496 22.4989 34.6063 22.2058L33.1758 21.687C33.0103 21.6271 32.9266 21.449 32.9888 21.2894C33.0509 21.1297 33.2354 21.0489 33.4008 21.1089L34.8234 21.6248C34.9309 21.3352 35.038 21.0437 35.1444 20.7515L33.7384 20.2417C33.573 20.1817 33.4893 20.0036 33.5515 19.844C33.6136 19.6843 33.7981 19.6035 33.9635 19.6635L35.3556 20.1684C35.461 19.8759 35.5655 19.5834 35.6688 19.2923L34.3011 18.7963C34.1357 18.7363 34.052 18.5582 34.1141 18.3986C34.1763 18.2389 34.3608 18.1581 34.5262 18.2181L35.8753 18.7074C35.9791 18.412 36.0814 18.1188 36.1819 17.8289L34.8638 17.3509C34.6984 17.2909 34.6146 17.1129 34.6768 16.9532C34.739 16.7936 34.9234 16.7128 35.0888 16.7728L36.3844 17.2426C36.4871 16.944 36.5875 16.65 36.6854 16.3621L35.4264 15.9055C35.261 15.8455 35.1773 15.6675 35.2395 15.5078C35.3016 15.3482 35.4861 15.2674 35.6515 15.3274L36.8844 15.7745C36.9866 15.4715 37.0854 15.1768 37.1804 14.8921L35.9891 14.4601C35.8237 14.4002 35.74 14.2221 35.8021 14.0624C35.8643 13.9028 36.0488 13.822 36.2142 13.882L37.3761 14.3034C37.4791 13.9927 37.5764 13.6971 37.6674 13.4193L36.5518 13.0148C36.3864 12.9548 36.3027 12.7767 36.3648 12.6171C36.427 12.4574 36.6114 12.3766 36.7768 12.4366L37.8601 12.8294C37.9684 12.4964 38.0645 12.199 38.1466 11.9437L37.1145 11.5694Z" fill="#FF879D"/>
<path fill-rule="evenodd" clip-rule="evenodd" d="M28.297 30.0146L36.9331 10.0046C36.9205 10.0035 36.908 10.0025 36.8958 10.0017C36.4144 9.97001 36.1014 10.3867 35.9058 10.8125L27.6288 28.8263L28.297 30.0146ZM28.297 30.0146L27.6288 28.8263L26.2304 31.5778C26.005 32.1567 26.1582 33.0851 26.3499 33.6609C26.4015 33.8161 26.4407 34.0183 26.4674 34.2538L28.297 30.0146Z" fill="#D87A8B"/>
<path d="M28.7326 30.4671C29.3942 30.7071 29.7291 31.4193 29.4805 32.0579C29.2319 32.6965 28.4939 33.0197 27.8323 32.7797C27.1706 32.5398 26.8358 31.8276 27.0844 31.189C27.333 30.5504 28.0709 30.2272 28.7326 30.4671Z" fill="white"/>
<path fill-rule="evenodd" clip-rule="evenodd" d="M38.3717 45.4743L38.8207 44.7237L35.1267 42.6652C34.912 42.5456 34.8384 42.2805 34.9624 42.0732C35.0864 41.866 35.361 41.795 35.5757 41.9146L39.2697 43.9731L39.7187 43.2225L36.0247 41.164C35.81 41.0443 35.7364 40.7793 35.8604 40.572C35.9844 40.3648 36.259 40.2937 36.4737 40.4134L40.1677 42.4719L40.6167 41.7213L36.9227 39.6628C36.708 39.5432 36.6344 39.2781 36.7584 39.0708C36.8823 38.8636 37.157 38.7925 37.3717 38.9122L41.0657 40.9707L41.5147 40.2201L37.8207 38.1616C37.606 38.0419 37.5324 37.7769 37.6564 37.5696C37.7804 37.3624 38.055 37.2913 38.2697 37.411L41.9637 39.4695L42.4128 38.7188L38.7187 36.6604C38.504 36.5407 38.4304 36.2757 38.5544 36.0684C38.6784 35.8611 38.953 35.7901 39.1677 35.9098L42.8618 37.9682L43.3108 37.2176L39.6167 35.1592C39.402 35.0395 39.3284 34.7745 39.4524 34.5672C39.5764 34.3599 39.851 34.2889 40.0657 34.4086L43.7598 36.467L44.2088 35.7165L40.5147 33.658C40.3 33.5383 40.2264 33.2733 40.3504 33.066C40.4744 32.8588 40.749 32.7877 40.9637 32.9074L44.6578 34.9659L45.1068 34.2152L41.4127 32.1568C41.198 32.0371 41.1244 31.7721 41.2484 31.5648C41.3724 31.3575 41.647 31.2865 41.8617 31.4062L45.5558 33.4646L46.0048 32.7141L42.3107 30.6556C42.096 30.5359 42.0224 30.2709 42.1464 30.0636C42.2704 29.8563 42.545 29.7853 42.7597 29.905L46.4538 31.9634L46.9028 31.2128L43.2087 29.1544C42.994 29.0347 42.9204 28.7697 43.0444 28.5624C43.1684 28.3551 43.443 28.2841 43.6577 28.4038L47.3518 30.4622L47.8008 29.7116L44.1067 27.6532C43.892 27.5335 43.8184 27.2685 43.9424 27.0612C44.0664 26.8539 44.341 26.7829 44.5557 26.9026L48.2498 28.961L48.6988 28.2104L45.0047 26.152C44.79 26.0323 44.7164 25.7673 44.8404 25.56C44.9644 25.3527 45.239 25.2817 45.4537 25.4014L49.1478 27.4598L49.5968 26.7092L45.9027 24.6508C45.688 24.5311 45.6144 24.2661 45.7384 24.0588C45.8624 23.8515 46.137 23.7805 46.3517 23.9002L50.0458 25.9586L50.4948 25.208L46.8007 23.1496C46.586 23.0299 46.5124 22.7648 46.6364 22.5576C46.7604 22.3503 47.035 22.2793 47.2497 22.399L50.882 24.423C51.2475 23.2647 50.7541 21.9748 49.6211 21.3434L47.2748 20.036C46.6151 19.6684 45.7715 19.8865 45.3906 20.5233L31.56 43.644C31.1791 44.2808 31.4052 45.095 32.0649 45.4626L34.4112 46.7701C35.5786 47.4206 37.0339 47.154 37.8814 46.2018L34.2287 44.1664C34.014 44.0467 33.9404 43.7817 34.0644 43.5744C34.1884 43.3672 34.463 43.2961 34.6777 43.4158L38.3717 45.4743Z" fill="#FF879D"/>
<path fill-rule="evenodd" clip-rule="evenodd" d="M46.8078 19.8773L31.8141 45.2845C31.3562 44.8711 31.2359 44.1937 31.5629 43.6471L45.3934 20.5263C45.6879 20.034 46.259 19.7919 46.8078 19.8773Z" fill="#D87A8B"/>
<path fill-rule="evenodd" clip-rule="evenodd" d="M38.7263 44.8841L38.8226 44.7232L35.1286 42.6648C34.9138 42.5451 34.8402 42.2801 34.9642 42.0728C34.9913 42.0275 35.0256 41.9887 35.0649 41.957C34.9765 42.0021 34.9 42.0712 34.8471 42.1614C34.6995 42.4126 34.791 42.7318 35.0513 42.8741L38.7263 44.8841Z" fill="white"/>
<path fill-rule="evenodd" clip-rule="evenodd" d="M34.1065 43.5249C34.1261 43.5008 34.1479 43.4791 34.1716 43.4599C34.0833 43.505 34.0068 43.5742 33.9538 43.6643C33.8063 43.9156 33.8977 44.2347 34.1581 44.3771L37.7538 46.3437C37.7995 46.2992 37.8438 46.253 37.8865 46.205L34.2338 44.1696C34.019 44.0499 33.9455 43.7848 34.0695 43.5776C34.0806 43.5589 34.093 43.5413 34.1065 43.5249Z" fill="white"/>
<path fill-rule="evenodd" clip-rule="evenodd" d="M39.624 43.3818L39.7202 43.2209L36.0262 41.1624C35.8115 41.0428 35.7379 40.7777 35.8619 40.5705C35.889 40.5252 35.9232 40.4864 35.9625 40.4547C35.8741 40.4997 35.7976 40.5689 35.7447 40.6591C35.5972 40.9103 35.6886 41.2294 35.949 41.3718L39.624 43.3818Z" fill="white"/>
<path fill-rule="evenodd" clip-rule="evenodd" d="M40.5228 41.8805L40.6191 41.7196L36.925 39.6612C36.7103 39.5415 36.6367 39.2765 36.7607 39.0692C36.7878 39.0239 36.8221 38.9851 36.8613 38.9534C36.773 38.9985 36.6965 39.0676 36.6435 39.1578C36.496 39.4091 36.5875 39.7282 36.8478 39.8706L40.5228 41.8805Z" fill="white"/>
<path fill-rule="evenodd" clip-rule="evenodd" d="M41.4218 40.3795L41.5181 40.2186L37.8241 38.1602C37.6093 38.0405 37.5357 37.7755 37.6597 37.5682C37.6868 37.5229 37.7211 37.4841 37.7604 37.4524C37.672 37.4975 37.5955 37.5666 37.5426 37.6568C37.3951 37.9081 37.4865 38.2272 37.7468 38.3696L41.4218 40.3795Z" fill="white"/>
<path fill-rule="evenodd" clip-rule="evenodd" d="M42.3193 38.877L42.4155 38.7161L38.7215 36.6576C38.5068 36.538 38.4332 36.2729 38.5572 36.0657C38.5842 36.0204 38.6185 35.9816 38.6578 35.9499C38.5694 35.9949 38.4929 36.0641 38.44 36.1543C38.2925 36.4055 38.3839 36.7246 38.6443 36.867L42.3193 38.877Z" fill="white"/>
<path fill-rule="evenodd" clip-rule="evenodd" d="M43.2194 37.3774L43.3156 37.2165L39.6216 35.158C39.4069 35.0384 39.3333 34.7733 39.4573 34.5661C39.4844 34.5208 39.5186 34.482 39.5579 34.4503C39.4696 34.4953 39.3931 34.5645 39.3401 34.6547C39.1926 34.9059 39.284 35.225 39.5444 35.3674L43.2194 37.3774Z" fill="white"/>
<path fill-rule="evenodd" clip-rule="evenodd" d="M44.1213 35.8793L44.2176 35.7184L40.5236 33.66C40.3088 33.5403 40.2352 33.2753 40.3592 33.068C40.3863 33.0227 40.4206 32.9839 40.4599 32.9522C40.3715 32.9973 40.295 33.0664 40.2421 33.1566C40.0945 33.4079 40.186 33.727 40.4463 33.8694L44.1213 35.8793Z" fill="white"/>
<path fill-rule="evenodd" clip-rule="evenodd" d="M45.0151 34.373L45.1114 34.2121L41.4173 32.1536C41.2026 32.0339 41.129 31.7689 41.253 31.5616C41.2801 31.5163 41.3144 31.4776 41.3536 31.4459C41.2653 31.4909 41.1888 31.5601 41.1358 31.6502C40.9883 31.9015 41.0798 32.2206 41.3401 32.363L45.0151 34.373Z" fill="white"/>
<path fill-rule="evenodd" clip-rule="evenodd" d="M45.9131 32.8706L46.0093 32.7097L42.3153 30.6512C42.1006 30.5316 42.027 30.2665 42.151 30.0593C42.178 30.014 42.2123 29.9752 42.2516 29.9435C42.1632 29.9885 42.0867 30.0577 42.0338 30.1479C41.8863 30.3991 41.9777 30.7182 42.2381 30.8606L45.9131 32.8706Z" fill="white"/>
<path fill-rule="evenodd" clip-rule="evenodd" d="M46.8182 31.3695L46.9145 31.2086L43.2205 29.1501C43.0057 29.0305 42.9321 28.7654 43.0561 28.5581C43.0832 28.5129 43.1175 28.4741 43.1568 28.4424C43.0684 28.4874 42.9919 28.5566 42.939 28.6467C42.7914 28.898 42.8829 29.2171 43.1432 29.3595L46.8182 31.3695Z" fill="white"/>
<path fill-rule="evenodd" clip-rule="evenodd" d="M47.7131 29.8702L47.8093 29.7093L44.1153 27.6508C43.9006 27.5312 43.827 27.2661 43.951 27.0589C43.9781 27.0136 44.0123 26.9748 44.0516 26.9431C43.9633 26.9881 43.8868 27.0573 43.8338 27.1475C43.6863 27.3987 43.7777 27.7178 44.0381 27.8602L47.7131 29.8702Z" fill="white"/>
<path fill-rule="evenodd" clip-rule="evenodd" d="M48.6064 28.364L48.7027 28.2031L45.0087 26.1447C44.7939 26.025 44.7203 25.76 44.8443 25.5527C44.8714 25.5074 44.9057 25.4686 44.945 25.4369C44.8566 25.482 44.7801 25.5511 44.7272 25.6413C44.5796 25.8926 44.6711 26.2117 44.9314 26.3541L48.6064 28.364Z" fill="white"/>
<path fill-rule="evenodd" clip-rule="evenodd" d="M49.5085 26.866L49.6047 26.7051L45.9107 24.6467C45.696 24.527 45.6224 24.2619 45.7464 24.0547C45.7735 24.0094 45.8077 23.9706 45.847 23.9389C45.7586 23.9839 45.6821 24.0531 45.6292 24.1433C45.4817 24.3945 45.5731 24.7136 45.8335 24.856L49.5085 26.866Z" fill="white"/>
<path fill-rule="evenodd" clip-rule="evenodd" d="M50.4062 25.3638L50.5025 25.2029L46.8085 23.1445C46.5937 23.0248 46.5201 22.7598 46.6441 22.5525C46.6712 22.5072 46.7055 22.4684 46.7448 22.4367C46.6564 22.4818 46.5799 22.5509 46.527 22.6411C46.3794 22.8924 46.4709 23.2115 46.7312 23.3539L50.4062 25.3638Z" fill="white"/>
</svg>

<svg xmlns="http://www.w3.org/2000/svg" width="63" height="63" fill="none">
  <circle cx="31.5" cy="31.5" r="31.5" fill="#FFCCE8"/>
  <path fill="#fff" fill-rule="evenodd" d="M31.383 29.366s.662-1.105 1.762-3.71c1.022-2.418 4.363-10.726 5.405-13.32.207-.514.255-1.11-.222-1.413a2.713 2.713 0 0 0-.384-.2 2.179 2.179 0 0 0-.562-.164c-.491-.067-.838.344-1.061.772l-9.338 17.924c-1.57 2.826-4.128 6.278-5.203 7.728l-.26.35c-1.06 1.44-1.652 1.857-2.19 2.066-.379.147-.62.119-.886.057-2.586-.717-5.279.43-6.16 2.695-.933 2.395.511 5.134 3.225 6.118 2.713.984 3.779-.845 4.711-3.24.581-1.492.973-2.852.53-3.904a2.28 2.28 0 0 0-.012-.042c-.256-.9.325-1.539.909-2.18.11-.121.22-.243.326-.367.288-.338.74-.88 1.24-1.479a299.27 299.27 0 0 1 2.02-2.401c.963-1.125 2.615-1.79 3.393-1.88.6-.068.855-.425 1.102-.768l.002-.003c.247-.345 1.653-2.639 1.653-2.639ZM19.172 44.65c-.684 1.756-1.466 3.097-3.463 2.373-1.997-.724-3.061-2.735-2.377-4.491.683-1.756 2.856-2.593 4.853-1.869 1.997.724 1.67 2.23.987 3.987Z" clip-rule="evenodd"/>
  <path fill="#FF879D" fill-rule="evenodd" d="M23.68 43.703c-1.745-.005-2.59 1.566-3.347 3.511-.932 2.395-1.378 4.449 1.336 5.433 2.713.984 5.669-.16 6.601-2.554.819-2.104-.195-4.472-2.292-5.684a1.42 1.42 0 0 1-.16-.587 15.181 15.181 0 0 0-.003-.126c-.019-.541-.043-1.25.553-2.783.515-1.322 2.192-5.052 3.548-8.037l-2.272-4.04-1.398 2.75c-.226.58-.072 1.508.12 2.084.273.821.197 2.963-.23 4.361-.198.644-.38 1.158-.547 1.624a18.113 18.113 0 0 0-.507 1.569c-.234.901-.643 2.158-1.402 2.479Zm1.164 1.518c-1.997-.724-2.779.617-3.463 2.373-.683 1.757-1.01 3.263.987 3.987 1.997.724 4.17-.112 4.854-1.869.683-1.756-.381-3.766-2.378-4.49Zm12.27-33.652a.306.306 0 0 1-.186-.397.323.323 0 0 1 .412-.18l.97.351c.06-.403-.018-.796-.386-1.008a2.673 2.673 0 0 0-.421-.192 2.159 2.159 0 0 0-.592-.132c-.481-.032-.794.385-.99.81l-8.277 18.014 2.272 4.04s1.67-3.448 2.945-6.354l-1.373-.498a.306.306 0 0 1-.187-.398.323.323 0 0 1 .412-.18l1.395.506a68.497 68.497 0 0 0 .363-.858l-1.42-.515a.306.306 0 0 1-.188-.398.324.324 0 0 1 .413-.18l1.43.519c.115-.282.23-.571.345-.865l-1.438-.522a.306.306 0 0 1-.187-.397.324.324 0 0 1 .412-.18l1.437.52c.11-.286.221-.576.331-.87l-1.43-.518a.306.306 0 0 1-.187-.398.323.323 0 0 1 .412-.18l1.422.516c.108-.29.215-.581.321-.873l-1.406-.51a.306.306 0 0 1-.187-.398.323.323 0 0 1 .413-.18l1.392.504.313-.876-1.368-.496a.306.306 0 0 1-.187-.397.324.324 0 0 1 .412-.18l1.35.488.306-.878-1.318-.478a.306.306 0 0 1-.187-.398.323.323 0 0 1 .412-.18l1.295.47.301-.88-1.259-.457a.306.306 0 0 1-.187-.398.323.323 0 0 1 .413-.18l1.232.447c.103-.303.201-.598.296-.883l-1.19-.432a.306.306 0 0 1-.188-.398.324.324 0 0 1 .412-.18l1.162.421.291-.884-1.115-.404a.306.306 0 0 1-.187-.398.323.323 0 0 1 .412-.18l1.083.392.287-.885-1.032-.375Z" clip-rule="evenodd"/>
  <path fill="#D87A8B" fill-rule="evenodd" d="m28.297 30.015 8.636-20.01a1.74 1.74 0 0 0-.037-.003c-.482-.032-.795.385-.99.81l-8.277 18.014.668 1.189Zm0 0-.668-1.189-1.399 2.752c-.225.579-.072 1.507.12 2.083.051.155.09.357.117.593l1.83-4.24Z" clip-rule="evenodd"/>
  <path fill="#fff" d="M28.733 30.467c.661.24.996.952.747 1.59-.248.64-.986.963-1.648.723-.661-.24-.996-.952-.748-1.591.249-.639.987-.962 1.649-.722Z"/>
  <path fill="#FF879D" fill-rule="evenodd" d="m38.372 45.474.449-.75-3.694-2.059a.425.425 0 0 1-.165-.592.458.458 0 0 1 .614-.158l3.694 2.058.449-.75-3.694-2.059a.425.425 0 0 1-.165-.592.458.458 0 0 1 .614-.159l3.694 2.059.449-.75-3.694-2.06a.425.425 0 0 1-.165-.591.458.458 0 0 1 .614-.159l3.694 2.059.449-.75-3.694-2.06a.425.425 0 0 1-.165-.591.458.458 0 0 1 .614-.159l3.694 2.058.449-.75-3.694-2.059a.425.425 0 0 1-.165-.592.458.458 0 0 1 .614-.158l3.694 2.058.449-.75-3.694-2.059a.425.425 0 0 1-.165-.592.458.458 0 0 1 .614-.158l3.694 2.058.449-.75-3.694-2.059a.425.425 0 0 1-.165-.592.458.458 0 0 1 .614-.159l3.694 2.059.449-.75-3.694-2.06a.425.425 0 0 1-.165-.591.458.458 0 0 1 .614-.159l3.694 2.059.449-.75-3.694-2.06a.425.425 0 0 1-.165-.591.458.458 0 0 1 .614-.159l3.694 2.058.449-.75-3.694-2.059a.425.425 0 0 1-.165-.592.458.458 0 0 1 .614-.158l3.694 2.058.449-.75-3.694-2.059a.425.425 0 0 1-.165-.592.458.458 0 0 1 .614-.158l3.694 2.058.449-.75-3.694-2.059a.425.425 0 0 1-.165-.592.458.458 0 0 1 .614-.159l3.694 2.059.449-.75-3.694-2.06a.425.425 0 0 1-.165-.591.458.458 0 0 1 .614-.159l3.694 2.059.449-.751L46.8 23.15a.425.425 0 0 1-.165-.592.458.458 0 0 1 .614-.159l3.632 2.024c.366-1.158-.128-2.448-1.26-3.08l-2.347-1.307c-.66-.368-1.503-.15-1.884.487L31.56 43.644a1.306 1.306 0 0 0 .505 1.819l2.346 1.307c1.168.65 2.623.384 3.47-.568l-3.652-2.036a.425.425 0 0 1-.165-.592.458.458 0 0 1 .614-.158l3.694 2.058Z" clip-rule="evenodd"/>
  <path fill="#D87A8B" fill-rule="evenodd" d="M46.808 19.877 31.814 45.285a1.298 1.298 0 0 1-.251-1.638l13.83-23.12a1.397 1.397 0 0 1 1.415-.65Z" clip-rule="evenodd"/>
  <path fill="#fff" fill-rule="evenodd" d="m38.726 44.884.097-.16-3.694-2.06a.425.425 0 0 1-.064-.707.513.513 0 0 0-.014.917l3.675 2.01ZM34.106 43.525a.444.444 0 0 1 .066-.065.513.513 0 0 0-.014.917l3.596 1.967c.046-.045.09-.091.133-.139l-3.653-2.035a.425.425 0 0 1-.128-.645ZM39.624 43.382l.096-.161-3.694-2.059a.425.425 0 0 1-.064-.707.513.513 0 0 0-.014.917l3.676 2.01ZM40.523 41.88l.096-.16-3.694-2.059a.425.425 0 0 1-.064-.708.513.513 0 0 0-.014.917l3.676 2.01ZM41.422 40.38l.096-.161-3.694-2.059a.425.425 0 0 1-.064-.708.513.513 0 0 0-.014.917l3.676 2.01ZM42.32 38.877l.096-.16-3.694-2.06a.425.425 0 0 1-.064-.707.513.513 0 0 0-.014.917l3.675 2.01ZM43.22 37.377l.096-.16-3.694-2.059a.425.425 0 0 1-.064-.708.513.513 0 0 0-.013.917l3.674 2.01ZM44.121 35.88l.097-.162-3.694-2.058a.425.425 0 0 1-.064-.708.513.513 0 0 0-.014.917l3.675 2.01ZM45.015 34.373l.096-.16-3.694-2.06a.425.425 0 0 1-.063-.707.513.513 0 0 0-.014.917l3.675 2.01ZM45.913 32.87l.096-.16-3.694-2.059a.425.425 0 0 1-.063-.707.513.513 0 0 0-.014.917l3.675 2.01ZM46.818 31.37l.096-.161-3.694-2.059a.425.425 0 0 1-.063-.708.513.513 0 0 0-.014.917l3.675 2.01ZM47.713 29.87l.096-.16-3.694-2.06a.425.425 0 0 1-.063-.707.513.513 0 0 0-.014.917l3.675 2.01ZM48.606 28.364l.097-.16-3.694-2.06a.425.425 0 0 1-.064-.707.513.513 0 0 0-.014.917l3.675 2.01ZM49.508 26.866l.097-.16-3.694-2.06a.425.425 0 0 1-.064-.707.513.513 0 0 0-.014.917l3.675 2.01ZM50.406 25.364l.096-.161-3.694-2.058a.425.425 0 0 1-.063-.708.513.513 0 0 0-.014.917l3.675 2.01Z" clip-rule="evenodd"/>
</svg>
